X: 255
P: Longways for as many as will
M: C|
L: 1/4
K: D
[|\
dd dd | d3 d | ee cd | e3 g |\
fd dd | d d2 d | cA AB | =c3 c |

